X: 11868
T: Emily's
R: reel
M: 4/4
K: Dmajor
AFF2 ABdf|eBB2 EBdG|AFF2 ABdf|efdB ABdG|AFF2 ABdf|
eBB2 g2fg|gffg fdAF|G2GF GFE2:|

